X: 082
M: 6/8
L: 1/8
K: G
c2c cdc | !+!B2A ABc | d2d dcB | A3 "4f":|\
|: BAG |\
!+!F2G ABc | !+!B2A BAG | !+!F2G ABA | G3 :|
|: B"4f"cd |\
!+!F2G ABc | !+!B2A BAG | !+!F2G ABA | G3 :|

